static/logos/obviouslyAi-wordmark-color.svg

<svg width="100" height="19" viewBox="0 0 100 19" fill="none" xmlns="http://www.w3.org/2000/svg">
<g clip-path="url(#clip0_1_1841)">
<path d="M3.69214e-05 9.72C-0.00239928 9.05224 0.115746 8.38953 0.348787 7.76375C0.570811 7.16101 0.910769 6.60858 1.34879 6.13875C2.29546 5.12959 3.52462 4.625 5.03629 4.625C6.54796 4.625 7.74421 5.1 8.62504 6.05C9.47337 6.95416 9.89712 8.12791 9.89629 9.57125C9.89546 11.0146 9.45879 12.2104 8.58629 13.1587C7.66379 14.1587 6.44046 14.6587 4.91629 14.6587C3.34296 14.6587 2.11004 14.1662 1.21754 13.1812C0.405871 12.2862 3.69214e-05 11.1325 3.69214e-05 9.72ZM2.25879 9.665C2.25807 10.0509 2.32404 10.434 2.45379 10.7975C2.57268 11.1456 2.76252 11.4653 3.01129 11.7362C3.52462 12.3004 4.19962 12.5825 5.03629 12.5825C5.81129 12.5825 6.42171 12.3067 6.86753 11.755C7.30087 11.2225 7.51753 10.5287 7.51753 9.67375C7.51753 8.81875 7.29462 8.11875 6.84879 7.57375C6.37129 7.00375 5.71753 6.71875 4.88753 6.71875C4.04587 6.71875 3.38629 7.02084 2.90879 7.625C2.46541 8.21076 2.23602 8.93071 2.25879 9.665Z" fill="black"/>
<path d="M13.6719 5.16625C14.3262 4.81747 15.0554 4.63261 15.7969 4.6275C16.4385 4.61161 17.0766 4.72732 17.6719 4.9675C18.1921 5.1927 18.6602 5.52292 19.0469 5.9375C19.9085 6.87416 20.3394 8.0575 20.3394 9.4875C20.3394 11.055 19.8715 12.3187 18.9356 13.2787C18.0372 14.2021 16.919 14.6637 15.5806 14.6637C14.4047 14.6637 13.4352 14.3571 12.6719 13.7437C11.8169 13.0496 11.3898 12.0912 11.3906 10.8687V0.697495H13.6669L13.6719 5.16625ZM13.6719 10.845C13.6719 11.935 14.3502 12.48 15.7069 12.48C16.3735 12.48 16.931 12.1883 17.3794 11.605C17.8277 11.0217 18.0569 10.2812 18.0669 9.38375C18.0669 8.49291 17.8252 7.82082 17.3419 7.3675C16.9085 6.965 16.3252 6.76375 15.5919 6.76375C15.1519 6.76375 14.6656 6.9125 14.1331 7.21C13.9702 7.29964 13.8147 7.40204 13.6681 7.51625L13.6719 10.845Z" fill="black"/>
<path d="M20.8125 4.81375H23.4375L25.705 11.2075L27.8975 4.81375H30.4713L26.6337 14.525H24.7237L20.8125 4.81375Z" fill="black"/>
<path d="M31.9141 2.045C32.3713 1.32 32.8903 0.635796 33.4653 0L35.4653 1.57C35.1978 1.89834 34.9499 2.22084 34.7216 2.5375L34.0053 3.55L31.9141 2.045ZM34.3578 13.4838C34.3502 13.8313 34.3623 14.1789 34.3941 14.525H32.0341V4.81375H34.3578V13.4838Z" fill="black"/>
<path d="M53.8634 13.6788C53.0709 14.3354 52.2068 14.6638 51.2709 14.6638C50.2709 14.6638 49.4843 14.3263 48.9109 13.6513C48.3659 12.9938 48.0931 12.0921 48.0922 10.9463V7.2575C48.0922 6.01875 48.0672 5.3075 48.0134 5.125C47.9824 5.00645 47.9441 4.88998 47.8984 4.77625C48.1818 4.80125 48.4788 4.81375 48.7897 4.81375H49.5609C49.7659 4.81375 50.0347 4.80375 50.3697 4.78625V10.1613C50.3697 11.4379 50.7168 12.1783 51.4109 12.3825C51.6342 12.4458 51.8652 12.4769 52.0972 12.475C52.4332 12.4863 52.7672 12.4201 53.0734 12.2816C53.3797 12.1431 53.6501 11.9359 53.8634 11.6763V4.81375H56.1684V13.335C56.1578 13.7331 56.1824 14.1313 56.2422 14.525H53.8672L53.8634 13.6788Z" fill="black"/>
<path d="M62.0281 14.6637C60.2781 14.6637 58.9615 14.3446 58.0781 13.7062C58.0906 13.5212 58.1094 13.31 58.1344 13.075L58.2181 12.4062C58.2669 11.9662 58.2981 11.6912 58.3106 11.5837C58.3145 11.5239 58.3236 11.4645 58.3381 11.4062C58.3381 11.3975 58.3944 11.4475 58.4869 11.555C58.6431 11.712 58.8218 11.8451 59.0169 11.95C59.3025 12.1168 59.6045 12.2537 59.9181 12.3587C60.66 12.6119 61.4393 12.7387 62.2231 12.7337C63.294 12.7337 63.8298 12.3775 63.8306 11.665C63.8343 11.5593 63.8073 11.4549 63.753 11.3642C63.6986 11.2735 63.6193 11.2004 63.5244 11.1537C63.1585 10.9687 62.621 10.8279 61.9119 10.7312C61.3156 10.6638 60.7303 10.5218 60.1694 10.3087C59.7645 10.1518 59.3901 9.92553 59.0631 9.64C58.5373 9.15 58.274 8.50875 58.2731 7.71625C58.2731 6.74957 58.6448 5.99041 59.3881 5.43875C60.1315 4.88707 61.1506 4.61582 62.4456 4.625C63.734 4.625 64.8335 4.99041 65.7444 5.72125C65.7002 5.88207 65.654 6.03707 65.6056 6.18625C65.4631 6.595 65.3556 6.89 65.2894 7.06875L65.0756 7.625C65.0631 7.675 65.0531 7.69875 65.0481 7.69875C64.9884 7.6407 64.9382 7.57362 64.8994 7.5C64.5085 7.04916 63.9015 6.75207 63.0781 6.60875C62.8207 6.5585 62.5591 6.53337 62.2969 6.53375C61.1694 6.53375 60.6056 6.87457 60.6056 7.55625C60.6051 7.67086 60.6385 7.78306 60.7014 7.87886C60.7642 7.97467 60.854 8.04983 60.9594 8.095C61.3978 8.33166 62.0003 8.505 62.7669 8.615C63.5335 8.725 64.114 8.87541 64.5081 9.06625C64.869 9.22912 65.1944 9.46146 65.4656 9.75C65.9123 10.2333 66.1352 10.8746 66.1344 11.6737C66.1425 12.0862 66.0513 12.4945 65.8685 12.8642C65.6858 13.2341 65.4169 13.5546 65.0844 13.7987C64.3535 14.3762 63.3348 14.6646 62.0281 14.6637Z" fill="black"/>
<path d="M70.2025 13.4838C70.1944 13.8313 70.2069 14.179 70.24 14.525H67.875V0.678757H70.1988L70.2025 13.4838Z" fill="black"/>
<path d="M72.2262 17.7588L72.8388 17.2663C73.7629 16.5163 74.5284 15.4104 75.135 13.9488L75.5625 12.9163L72 4.81375H74.6025L76.8325 10.4263L78.905 4.81375H81.5813C81.2588 5.25959 80.8654 6.08959 80.4013 7.30375L79.01 10.75C77.145 15.1366 75.6834 17.7516 74.625 18.595L72.2262 17.7588Z" fill="black"/>
<path d="M81.1484 14.525C81.2006 14.1941 81.2286 13.8599 81.2322 13.525C81.2322 13.2341 81.2322 13.0341 81.2322 12.925C81.2322 12.8162 81.2234 12.71 81.2172 12.605C81.2109 12.5 81.2059 12.4 81.1997 12.3075L81.1709 12.075H83.8659C83.8472 12.31 83.8384 12.5025 83.8384 12.6512L83.8197 13.0412V13.7062C83.8166 13.9811 83.8319 14.256 83.8659 14.5287L81.1484 14.525Z" fill="black"/>
<path d="M92.3856 13.9488C91.5056 14.4254 90.7094 14.6638 89.9969 14.6638C89.3809 14.675 88.7659 14.6078 88.1669 14.4638C87.7025 14.3515 87.2639 14.1516 86.8744 13.875C86.156 13.3491 85.7969 12.5871 85.7969 11.5888C85.7969 10.6971 86.2365 9.95375 87.1156 9.35875C88.0706 8.71459 89.3656 8.3925 91.0006 8.3925L91.3756 8.40125C91.4506 8.40793 91.534 8.41293 91.6256 8.41625C91.7094 8.41805 91.7929 8.42557 91.8756 8.43875C91.8256 7.44793 91.3981 6.86875 90.5931 6.70125C90.3135 6.64389 90.0286 6.61583 89.7431 6.6175C89.4471 6.61705 89.1518 6.64342 88.8606 6.69625C88.5759 6.74782 88.2949 6.81797 88.0194 6.90625C87.4185 7.09793 86.9878 7.3175 86.7269 7.565L86.6994 7.5475L86.4206 5.49375C87.5292 4.913 88.7641 4.6146 90.0156 4.625C92.0356 4.625 93.3273 5.35293 93.8906 6.80875C94.0767 7.31133 94.1679 7.84413 94.1594 8.38V11.75C94.1594 12.4692 94.4135 12.9584 94.9219 13.2175L93.2406 14.76C92.8862 14.5735 92.5904 14.2928 92.3856 13.9488ZM91.8856 10.11C91.714 10.0792 91.54 10.0637 91.3656 10.0638H90.9906C89.6206 10.0638 88.7502 10.3675 88.3794 10.975C88.2706 11.1439 88.2125 11.3404 88.2119 11.5413C88.2079 11.722 88.2442 11.9013 88.3181 12.0663C88.3962 12.2248 88.521 12.3557 88.6756 12.4413C88.9981 12.6271 89.4769 12.72 90.1119 12.72C90.7344 12.7234 91.3473 12.5666 91.8919 12.265C91.8919 12.1975 91.8819 12.1263 91.8819 12.0513L91.8856 10.11Z" fill="black"/>
<path d="M96.4531 2.045C96.9105 1.32034 97.429 0.636176 98.0031 0L100.003 1.57C99.7373 1.89834 99.4873 2.22084 99.2531 2.5375L98.5381 3.55L96.4531 2.045ZM98.8981 13.4838C98.8899 13.8313 98.9019 14.1789 98.9344 14.525H96.5744V4.81375H98.8981V13.4838Z" fill="black"/>
<path d="M42.156 8.95625L44.2698 5.295C45.4144 6.0349 46.2435 7.17341 46.5964 8.48982C46.9493 9.80625 46.8008 11.2068 46.1798 12.42L42.5185 10.3087C42.4059 10.2437 42.3073 10.1572 42.228 10.0541C42.1489 9.95091 42.0908 9.83319 42.0572 9.70759C42.0235 9.58199 42.0149 9.451 42.0319 9.32207C42.0488 9.19316 42.091 9.06885 42.156 8.95625Z" fill="#F8B228"/>
<path d="M42.2528 10.785L45.9141 12.8987C45.1739 14.0431 44.0354 14.8719 42.7189 15.2246C41.4026 15.5772 40.0021 15.4286 38.7891 14.8075L40.9028 11.1475C41.0341 10.9207 41.2498 10.7552 41.5029 10.6873C41.7559 10.6193 42.0257 10.6545 42.2528 10.785Z" fill="#2D1D2F"/>
<path d="M38.3037 14.5325L41.1937 9.5325C41.2217 9.49381 41.2344 9.44601 41.2289 9.39854C41.2235 9.35106 41.2004 9.30734 41.1644 9.27597C41.1283 9.24462 41.0818 9.2279 41.034 9.22911C40.9863 9.23031 40.9406 9.24936 40.9062 9.2825C39.4999 10.4431 37.8889 11.3304 36.1562 11.8987C36.574 12.9826 37.3262 13.9051 38.3037 14.5325Z" fill="#6AB3E3"/>
<path d="M35.9851 11.375C39.2807 10.2901 42.0611 8.02898 43.7951 5.02375C42.8454 4.53759 41.7747 4.33819 40.7136 4.44983C39.6525 4.56146 38.6467 4.97934 37.819 5.65251C36.9912 6.32569 36.3771 7.22511 36.0515 8.24118C35.7259 9.25724 35.7027 10.3461 35.9851 11.375Z" fill="#E41E26"/>
</g>
<defs>
<clipPath id="clip0_1_1841">
<rect width="100" height="18.625" fill="white"/>
</clipPath>
</defs>
</svg>

<svg xmlns="http://www.w3.org/2000/svg" width="336.842" height="64" fill="none" viewBox="0 0 100 19"><g clip-path="url(#a)"><path fill="#000" d="M0 9.72a5.548 5.548 0 0 1 .349-1.956 4.833 4.833 0 0 1 1-1.625c.946-1.01 2.176-1.514 3.687-1.514 1.512 0 2.708.475 3.589 1.425.848.904 1.272 2.078 1.271 3.521 0 1.444-.437 2.64-1.31 3.588-.922 1-2.146 1.5-3.67 1.5-1.573 0-2.806-.493-3.698-1.478C.406 12.286 0 11.133 0 9.72Zm2.259-.055c0 .386.065.769.195 1.133.119.348.309.667.557.938.514.564 1.189.846 2.025.846.775 0 1.386-.275 1.832-.827.433-.533.65-1.226.65-2.081s-.223-1.555-.67-2.1c-.477-.57-1.13-.855-1.96-.855-.842 0-1.502.302-1.98.906a3.215 3.215 0 0 0-.65 2.04ZM13.672 5.166a4.585 4.585 0 0 1 2.125-.538 4.7 4.7 0 0 1 1.875.34c.52.225.988.555 1.375.97.861.936 1.292 2.12 1.292 3.55 0 1.567-.467 2.83-1.403 3.79-.899.924-2.017 1.386-3.355 1.386-1.176 0-2.146-.307-2.91-.92-.854-.694-1.281-1.653-1.28-2.875V.697h2.276l.005 4.47Zm0 5.679c0 1.09.678 1.635 2.035 1.635.666 0 1.224-.292 1.672-.875.449-.583.678-1.324.688-2.221 0-.891-.242-1.563-.725-2.017-.433-.402-1.017-.603-1.75-.603-.44 0-.926.148-1.459.446a3.51 3.51 0 0 0-.465.306l.004 3.329ZM20.813 4.814h2.625l2.267 6.393 2.193-6.393h2.573l-3.837 9.711h-1.91l-3.912-9.711ZM31.914 2.045A14.89 14.89 0 0 1 33.465 0l2 1.57c-.267.328-.515.65-.743.968l-.717 1.012-2.09-1.505Zm2.444 11.439c-.008.347.004.695.036 1.041h-2.36V4.814h2.324v8.67ZM53.863 13.679c-.792.656-1.656.985-2.592.985-1 0-1.787-.338-2.36-1.013-.545-.657-.818-1.559-.819-2.705V7.258c0-1.24-.025-1.95-.079-2.133a2.909 2.909 0 0 0-.115-.349c.284.025.58.038.892.038h.77c.206 0 .475-.01.81-.028v5.375c0 1.277.347 2.017 1.04 2.222.224.063.455.094.687.092a2.19 2.19 0 0 0 1.766-.799V4.814h2.305v8.521c-.01.398.014.796.074 1.19h-2.375l-.004-.846ZM62.028 14.664c-1.75 0-3.066-.32-3.95-.958.013-.185.031-.396.056-.631l.084-.669.093-.822c.004-.06.013-.12.027-.178 0-.008.056.041.149.149.156.157.335.29.53.395.285.167.587.304.901.409.742.253 1.521.38 2.305.375 1.071 0 1.607-.357 1.608-1.069a.548.548 0 0 0-.307-.511c-.366-.185-.903-.326-1.612-.423a7.175 7.175 0 0 1-1.743-.422 3.732 3.732 0 0 1-1.106-.669c-.526-.49-.789-1.131-.79-1.924 0-.966.372-1.726 1.115-2.277.744-.552 1.763-.823 3.058-.814 1.288 0 2.388.365 3.298 1.096-.044.161-.09.316-.138.465-.143.409-.25.704-.317.883l-.213.556c-.013.05-.023.074-.028.074A.793.793 0 0 1 64.9 7.5c-.39-.45-.998-.748-1.82-.891a4.046 4.046 0 0 0-.782-.075c-1.128 0-1.691.34-1.691 1.022a.583.583 0 0 0 .353.539c.439.237 1.041.41 1.808.52.766.11 1.347.26 1.741.451.361.163.686.395.958.684.446.483.67 1.125.668 1.924a2.572 2.572 0 0 1-1.05 2.125c-.73.577-1.75.866-3.056.865ZM70.203 13.484c-.009.347.004.695.037 1.041h-2.365V.679h2.324l.004 12.805ZM72.226 17.759l.613-.493c.924-.75 1.69-1.856 2.296-3.317l.427-1.033L72 4.814h2.603l2.23 5.612 2.072-5.612h2.676c-.322.446-.716 1.276-1.18 2.49L79.01 10.75c-1.865 4.387-3.327 7.002-4.385 7.845l-2.399-.836ZM81.148 14.525c.053-.33.08-.665.084-1v-.6c0-.109-.009-.215-.015-.32l-.017-.298-.03-.232h2.696a7.52 7.52 0 0 0-.028.576l-.018.39v.665c-.003.275.012.55.046.823l-2.718-.004ZM92.386 13.949c-.88.476-1.677.715-2.39.715a7.265 7.265 0 0 1-1.83-.2 3.758 3.758 0 0 1-1.292-.589c-.718-.526-1.077-1.288-1.077-2.286 0-.892.44-1.635 1.319-2.23.955-.644 2.25-.966 3.885-.966l.375.008c.075.007.158.012.25.015.083.002.167.01.25.023-.05-.991-.478-1.57-1.283-1.738a4.11 4.11 0 0 0-.85-.083c-.296-.001-.591.025-.882.078a6.628 6.628 0 0 0-.842.21c-.6.192-1.031.412-1.292.659l-.028-.018-.278-2.053a7.611 7.611 0 0 1 3.595-.869c2.02 0 3.311.728 3.875 2.184.186.502.277 1.035.268 1.571v3.37c0 .72.254 1.208.763 1.467L93.24 14.76a2.172 2.172 0 0 1-.855-.811Zm-.5-3.839a2.934 2.934 0 0 0-.52-.046h-.375c-1.37 0-2.24.303-2.612.911a1.051 1.051 0 0 0-.167.566c-.004.181.032.36.106.525.078.159.203.29.358.375.322.186.8.279 1.436.279a3.633 3.633 0 0 0 1.78-.455c0-.068-.01-.139-.01-.214l.004-1.941ZM96.453 2.045C96.91 1.32 97.43.636 98.003 0l2 1.57c-.266.328-.516.65-.75.968l-.715 1.012-2.085-1.505Zm2.445 11.439c-.008.347.004.695.036 1.041h-2.36V4.814h2.324v8.67Z"/><path fill="#F8B228" d="m42.156 8.956 2.114-3.661a5.5 5.5 0 0 1 1.91 7.125l-3.661-2.111a.992.992 0 0 1-.363-1.353Z"/><path fill="#2D1D2F" d="m42.253 10.785 3.661 2.114a5.5 5.5 0 0 1-7.125 1.909l2.114-3.66a.99.99 0 0 1 1.35-.363Z"/><path fill="#6AB3E3" d="m38.304 14.533 2.89-5a.191.191 0 0 0-.288-.25 14.621 14.621 0 0 1-4.75 2.616 5.465 5.465 0 0 0 2.148 2.634Z"/><path fill="#E41E26" d="M35.985 11.375a14.111 14.111 0 0 0 7.81-6.351 5.5 5.5 0 0 0-7.81 6.351Z"/></g><defs><clipPath id="a"><path fill="#fff" d="M0 0h100v18.625H0z"/></clipPath></defs></svg>
